X: 34956
T: Rocky Road To Dublin, The
R: slip jig
M: 9/8
K: Adorian
|:efe d2B A2G|E2A A2B c2d|efe d2B A2c|B2G G2A B2d|
efe d2B A2G|E2A A2B c2d|efg f2a g2e|d2B G2A B2d:|
|:e2a a2f g3|e2a a2A Bcd|e2a a2f g2e|d2B G2A Bcd|
e2a a2f g3|e2a a2f g2a|b3 a2f g2e|d2B G2A Bcd:|
|:efe d2B c2A|e2A c2A Bcd|efe d2B c2A|B2G G2A Bcd|
efe d2B c2A|e2A c2A Bcd|efg f2a g2e|d2B G2A Bcd:|

